X: 122
M: C
L: 1/8
K: D
d2d>d c2(d>e) | f>Be>d (cA)(Bc) | d2d>d c2(d>e) | (fd).e.c d2z :|
|: d' |\
.c'.b.a.g f.e.d.d' | .c'.b.a.g .f.e.d.d' | .c'.b.a.g .f(fga) | bBe>d cABc |
d2dd c2(d>e) | fBe>d cABc | d2d>d c2(d>e) | f>ge>f d2z :|
|: a |\
d'2d'>d' c'2(d'>c') | bagf efg^g | a2a>a ^g2(a>b) | c'd'b>a a3f  |
g2g>g f2(g>a) | bBe>d cABc | d2d>d c2d(b/g/) | (f>g) (e>c) d3 |]


